app/img/azamat/image-add.svg

<svg width="54" height="50" viewBox="0 0 54 50" fill="none" xmlns="http://www.w3.org/2000/svg">
<path fill-rule="evenodd" clip-rule="evenodd" d="M13.9445 7.79556H14.8314L15.4268 7.13828L19.7673 2.34668H34.1767L38.5172 7.13828L39.1126 7.79556H39.9994H48.5496C50.393 7.79556 51.944 9.33313 51.944 11.2444V43.9378C51.944 45.8491 50.393 47.3866 48.5496 47.3866H5.3944C3.55095 47.3866 2 45.8491 2 43.9378V11.2444C2 9.33313 3.55095 7.79556 5.3944 7.79556H13.9445ZM13.9445 5.79556L18.8804 0.34668H35.0636L39.9994 5.79556H48.5496C51.5165 5.79556 53.944 8.24756 53.944 11.2444V43.9378C53.944 46.9346 51.5165 49.3866 48.5496 49.3866H5.3944C2.42748 49.3866 0 46.9346 0 43.9378V11.2444C0 8.24756 2.42748 5.79556 5.3944 5.79556H13.9445ZM36.6892 26.498C36.6892 31.713 32.4616 35.9406 27.2465 35.9406C22.0315 35.9406 17.8039 31.713 17.8039 26.498C17.8039 21.2829 22.0315 17.0553 27.2465 17.0553C32.4616 17.0553 36.6892 21.2829 36.6892 26.498ZM38.6892 26.498C38.6892 32.8176 33.5661 37.9406 27.2465 37.9406C20.9269 37.9406 15.8039 32.8176 15.8039 26.498C15.8039 20.1784 20.9269 15.0553 27.2465 15.0553C33.5661 15.0553 38.6892 20.1784 38.6892 26.498Z" fill="#FFFFFF"/>
</svg>

<svg width="54" height="50" fill="none" xmlns="http://www.w3.org/2000/svg"><path fill-rule="evenodd" clip-rule="evenodd" d="M13.944 7.796h.887l.596-.658 4.34-4.791h14.41l4.34 4.791.596.658h9.436c1.844 0 3.395 1.537 3.395 3.448v32.694c0 1.911-1.551 3.449-3.394 3.449H5.394C3.551 47.387 2 45.849 2 43.937V11.245c0-1.91 1.55-3.448 3.394-3.448h8.55Zm0-2L18.88.346h16.184l4.935 5.45h8.55c2.968 0 5.395 2.452 5.395 5.448v32.694c0 2.997-2.428 5.449-5.394 5.449H5.394C2.427 49.387 0 46.935 0 43.937V11.245c0-2.996 2.427-5.448 5.394-5.448h8.55ZM36.69 26.498a9.443 9.443 0 0 1-18.885 0 9.443 9.443 0 1 1 18.885 0Zm2 0c0 6.32-5.123 11.443-11.442 11.443-6.32 0-11.443-5.123-11.443-11.443 0-6.32 5.123-11.443 11.443-11.443 6.32 0 11.442 5.123 11.442 11.443Z" fill="#FFF"/></svg>
